X: 41673
T: Upperchurch, The
R: polka
M: 2/4
K: Gmajor
|:B/d/B/A/|GD GA|B2 B/d/B/A/|GD GA|B2 Bd|
ed Bd|A2 AB/d/|ed BA|1 G2:|2 G2||
|:Bd|g2 ge|ff fg/f/|ef ge|d2 dB/d/|
ed Bd|A2 AB/d/|ed BA|G2:|

